pix_core/t/locktime.svg

<svg fill="none" preserveAspectRatio="xMinYMid meet" viewBox="0 0 19 18" xmlns="http://www.w3.org/2000/svg"><path clip-rule="evenodd" d="m8.88887 2.50117c-3.58921 0-6.49883 2.90962-6.49883 6.49883 0 3.5892 2.90962 6.4988 6.49883 6.4988.44183 0 .8.3582.8.8 0 .4419-.35817.8-.8.8-4.47286 0-8.098831-3.6259-8.098831-8.0988 0-4.47286 3.625971-8.098831 8.098831-8.098831 3.29873 0 6.13513 1.972121 7.39773 4.798301.1803.4034-.0007.87652-.4041 1.05674-.4034.18023-.8765-.00069-1.0567-.40409-1.0146-2.27096-3.2921-3.85095-5.93693-3.85095zm0 1.69883c.44183 0 .8.35817.8.8v3.66863l1.07083 1.07085c.3124.31242.3124.81892 0 1.13132-.3124.3125-.81894.3125-1.13135 0l-1.30517-1.30512c-.15003-.15003-.23431-.35351-.23431-.56568v-4c0-.44183.35817-.8.8-.8zm3.79983 6.3c0-1.21504.985-2.20001 2.2-2.20001s2.2.98497 2.2 2.20001v.5h.4002c.7732 0 1.4.6268 1.4 1.4v3.2c0 .7732-.6268 1.4-1.4 1.4h-5.2c-.7732 0-1.4-.6268-1.4-1.4v-3.2c0-.7732.6268-1.4 1.4-1.4h.3998zm3 0v.5h-1.6v-.5c0-.4418.3582-.80001.8-.80001s.8.35821.8.80001z" fill="#fff" fill-rule="evenodd"/></svg>

<svg viewBox="0 0 19 18" fill="none" xmlns="http://www.w3.org/2000/svg" preserveAspectRatio="xMinYMid meet">
<path fill-rule="evenodd" clip-rule="evenodd" d="M8.88887 2.50117C5.29966 2.50117 2.39004 5.41079 2.39004 9C2.39004 12.5892 5.29966 15.4988 8.88887 15.4988C9.3307 15.4988 9.68887 15.857 9.68887 16.2988C9.68887 16.7407 9.3307 17.0988 8.88887 17.0988C4.41601 17.0988 0.790039 13.4729 0.790039 9C0.790039 4.52714 4.41601 0.901169 8.88887 0.901169C12.1876 0.901169 15.024 2.87329 16.2866 5.69947C16.4669 6.10287 16.2859 6.57599 15.8825 6.75621C15.4791 6.93644 15.006 6.75552 14.8258 6.35212C13.8112 4.08116 11.5337 2.50117 8.88887 2.50117ZM8.88887 4.2C9.3307 4.2 9.68887 4.55817 9.68887 5V8.66863L10.7597 9.73948C11.0721 10.0519 11.0721 10.5584 10.7597 10.8708C10.4473 11.1833 9.94076 11.1833 9.62835 10.8708L8.32318 9.56568C8.17315 9.41565 8.08887 9.21217 8.08887 9V5C8.08887 4.55817 8.44704 4.2 8.88887 4.2ZM12.6887 10.5C12.6887 9.28496 13.6737 8.29999 14.8887 8.29999C16.1037 8.29999 17.0887 9.28496 17.0887 10.5V11H17.4889C18.2621 11 18.8889 11.6268 18.8889 12.4V15.6C18.8889 16.3732 18.2621 17 17.4889 17H12.2889C11.5157 17 10.8889 16.3732 10.8889 15.6V12.4C10.8889 11.6268 11.5157 11 12.2889 11H12.6887V10.5ZM15.6887 10.5V11H14.0887V10.5C14.0887 10.0582 14.4469 9.69999 14.8887 9.69999C15.3305 9.69999 15.6887 10.0582 15.6887 10.5Z" fill="#fff"/>
</svg>
